icons/weibo-line.svg

<svg xmlns="http://www.w3.org/2000/svg" width="24" height="24" fill="none"><g clip-path="url(#a)"><g><path fill="#121212" d="M20.194 14.197C20.194 17.559 15.664 20.621 10.268 20.621C5.318 20.62 1 18.189 1 14.534C1 12.587 2.18 10.447 4.24 8.44597C7.072 5.69997 10.469 4.41297 12.098 5.99797C12.596 6.47997 12.821 7.11997 12.817 7.85597C14.792 7.27997 16.467 7.45197 17.3 8.60797C17.749 9.23097 17.832 9.98797 17.626 10.815C19.137 11.425 20.194 12.585 20.194 14.197ZM15.754 12.127C15.368 11.717 15.354 11.207 15.556 10.717C15.764 10.209 15.769 9.90497 15.676 9.77697C15.412 9.40897 14.143 9.41397 12.482 10.088C12.3191 10.1565 12.148 10.2035 11.973 10.228C11.629 10.274 11.302 10.229 10.99 9.96297C10.571 9.60397 10.516 9.10797 10.668 8.64697C10.883 7.97697 10.848 7.57097 10.705 7.43197C10.519 7.25197 9.928 7.24097 9.046 7.57497C7.977 7.97997 6.748 8.79897 5.632 9.88097C3.925 11.54 3 13.218 3 14.534C3 16.776 6.276 18.621 10.268 18.621C14.688 18.621 18.194 16.251 18.194 14.197C18.194 13.459 17.557 12.858 16.521 12.545C16.127 12.432 15.985 12.374 15.754 12.128V12.127ZM22.808 10.51C22.7414 10.7667 22.5756 10.9865 22.347 11.1209C22.1184 11.2554 21.8457 11.2935 21.589 11.227C21.3323 11.1604 21.1125 10.9946 20.978 10.766C20.8436 10.5374 20.8054 10.2647 20.872 10.008C21.0439 9.34868 21.0446 8.6564 20.874 7.99677C20.7034 7.33713 20.3671 6.73202 19.897 6.23881C19.4269 5.7456 18.8387 5.38063 18.188 5.17853C17.5373 4.97642 16.8458 4.94388 16.179 5.08397C16.0498 5.11247 15.9162 5.11504 15.7859 5.09152C15.6557 5.068 15.5314 5.01886 15.4203 4.94696C15.3092 4.87506 15.2135 4.78181 15.1387 4.67264C15.0639 4.56346 15.0115 4.44052 14.9846 4.31095C14.9576 4.18138 14.9567 4.04775 14.9818 3.91781C15.0069 3.78787 15.0575 3.66421 15.1308 3.55398C15.204 3.44376 15.2984 3.34917 15.4085 3.2757C15.5185 3.20223 15.6421 3.15133 15.772 3.12597C16.7717 2.91668 17.8083 2.96606 18.7836 3.26944C19.7589 3.57282 20.6406 4.12016 21.3452 4.85961C22.0498 5.59906 22.554 6.50614 22.81 7.49494C23.066 8.48373 23.0653 9.52151 22.808 10.51Z"/></g></g><defs><clipPath id="a"><rect width="24" height="24" fill="white"/></clipPath></defs></svg>

<svg width="24" height="24" fill="none" xmlns="http://www.w3.org/2000/svg"><g clip-path="url(#a)"><path d="M20.194 14.197c0 3.362-4.53 6.424-9.926 6.424C5.318 20.62 1 18.189 1 14.534c0-1.947 1.18-4.087 3.24-6.088 2.832-2.746 6.229-4.033 7.858-2.448.498.482.723 1.122.719 1.858 1.975-.576 3.65-.404 4.483.752.449.623.532 1.38.326 2.207 1.511.61 2.568 1.77 2.568 3.382Zm-4.44-2.07c-.386-.41-.4-.92-.198-1.41.208-.508.213-.812.12-.94-.264-.368-1.533-.363-3.194.311a2.044 2.044 0 0 1-.509.14c-.344.046-.671.001-.983-.265-.419-.359-.474-.855-.322-1.316.215-.67.18-1.076.037-1.215-.186-.18-.777-.191-1.659.143-1.069.405-2.298 1.224-3.414 2.306C3.925 11.54 3 13.218 3 14.534c0 2.242 3.276 4.087 7.268 4.087 4.42 0 7.926-2.37 7.926-4.424 0-.738-.637-1.339-1.673-1.652-.394-.113-.536-.171-.767-.417v-.001Zm7.054-1.617a1 1 0 0 1-1.936-.502 4.001 4.001 0 0 0-4.693-4.924 1 1 0 1 1-.407-1.958 6 6 0 0 1 7.036 7.384Z" /></g><defs><clipPath id="a"><path fill="#fff" d="M0 0h24v24H0z"/></clipPath></defs></svg>
